vectors/gravatar/gravatar.svg

<svg xmlns="http://www.w3.org/2000/svg" viewBox="0 0 256 256"><path d="M128 0c-14.144 0-25.6 11.456-25.6 25.6v89.6c0 14.128 11.456 25.6 25.6 25.6 14.144 0 25.6-11.472 25.6-25.6V55.584c29.824 10.56 51.2 38.976 51.2 72.416 0 42.4-34.4 76.8-76.8 76.8S51.2 170.4 51.2 128c0-21.216 8.592-40.416 22.496-54.304 10-10 10-26.208 0-36.208s-26.208-10-36.208 0C14.336 60.64 0 92.64 0 128c0 70.688 57.312 128 128 128s128-57.312 128-128S198.688 0 128 0" fill="#1E8CBE"/></svg>

<svg version="1.1" xmlns="http://www.w3.org/2000/svg" xmlns:xlink="http://www.w3.org/1999/xlink" viewBox="0 0 256 256">
    <g>
        <path d="M128,0 C113.856,0 102.4,11.456 102.4,25.6 L102.4,115.2 C102.4,129.328 113.856,140.8 128,140.8 C142.144,140.8 153.6,129.328 153.6,115.2 L153.6,55.584 C183.424,66.144 204.8,94.56 204.8,128 C204.8,170.4 170.4,204.8 128,204.8 C85.6,204.8 51.2,170.4 51.2,128 C51.2,106.784 59.792,87.584 73.696,73.696 C83.696,63.696 83.696,47.488 73.696,37.488 C63.696,27.488 47.488,27.488 37.488,37.488 C14.336,60.64 0,92.64 0,128 C0,198.688 57.312,256 128,256 C198.688,256 256,198.688 256,128 C256,57.312 198.688,0 128,0" fill="#1E8CBE" />
    </g>
</svg>
